app/assets/images/admin/cloud_bannr1.svg

<?xml version="1.0" encoding="UTF-8" standalone="no"?>
<svg width="836px" height="76px" viewBox="0 0 836 76" version="1.1" xmlns="http://www.w3.org/2000/svg" xmlns:xlink="http://www.w3.org/1999/xlink">
    <!-- Generator: sketchtool 40.2 (33826) - http://www.bohemiancoding.com/sketch -->
    <title>4D08F46C-6BC2-4198-A1C2-C61495C8B57F</title>
    <desc>Created with sketchtool.</desc>
    <defs></defs>
    <g id="Page-1" stroke="none" stroke-width="1" fill="none" fill-rule="evenodd">
        <g id="Desktop-HD-Copy-2" fill="#F7FBFF">
            <path d="M223.016673,37.7171945 C226.667514,40.9645196 230.855326,44.0290333 235.655276,46.8259977 C282.277187,73.9929111 316.417862,19.8227387 316.417862,19.8227387 C316.417862,19.8227387 303.129,39.5323909 320.471078,46.8259977 C337.813156,54.1196046 348.068954,30.5094831 348.068954,30.5094831 C348.068954,30.5094831 346.672417,82.7867021 403.139237,75.2585201 C459.606057,67.7303381 456.387482,16.8496526 456.387482,16.8496526 C456.387482,16.8496526 455.034594,54.0323189 512.101479,39.5323902 C525.921214,36.0209812 535.405706,29.9566061 541.844206,22.7816815 C546.762969,26.1858147 552.907311,29.0173211 560.558595,30.9614096 C610.882021,43.7479161 609.689001,10.9590373 609.689001,10.9590373 C609.689001,10.9590373 606.850757,55.8272728 656.645027,62.4658674 C706.439297,69.1044619 705.207785,23.004718 705.207785,23.004718 C705.207785,23.004718 714.251679,43.8248874 729.544485,37.3931488 C744.837291,30.9614102 733.118743,13.5808009 733.118743,13.5808009 C733.118743,13.5808009 765.589346,61.3498124 806.702056,37.3931488 C847.814766,13.4364851 835.636913,-32.7787135 835.636913,-32.7787135 L552.317347,-32.980605 C552.313676,-32.9934948 552.311786,-33 552.311786,-33 L538.705815,-32.9903045 L525.099844,-33 C525.099844,-33 525.097954,-32.9934922 525.094288,-32.980605 L324.059834,-32.8373493 C323.64538,-34.85153 323.311786,-36 323.311786,-36 L-28.8379872,-35.7490606 C-28.8379872,-35.7490606 -39.9666351,16.6590843 6.65527574,43.8259977 C53.2771865,70.9929111 87.4178618,16.8227387 87.4178618,16.8227387 C87.4178618,16.8227387 74.129,36.5323909 91.4710782,43.8259977 C108.813156,51.1196046 119.068954,27.5094831 119.068954,27.5094831 C119.068954,27.5094831 117.672417,79.7867021 174.139237,72.2585201 C204.113708,68.2623101 217.269787,52.0500568 223.016673,37.7171945 Z" id="Combined-Shape-Copy"></path>
        </g>
    </g>
</svg>

<svg xmlns="http://www.w3.org/2000/svg" width="836" height="76"><path fill="#F7FBFF" fill-rule="evenodd" d="M223.017 37.717c3.65 3.248 7.838 6.312 12.638 9.11 46.622 27.166 80.763-27.004 80.763-27.004s-13.29 19.71 4.053 27.003c17.35 7.294 27.6-16.317 27.6-16.317s-1.39 52.27 55.07 44.75c56.47-7.53 53.25-58.41 53.25-58.41s-1.35 37.18 55.72 22.68c13.82-3.51 23.306-9.58 29.744-16.75 4.92 3.4 11.063 6.23 18.715 8.18 50.322 12.78 49.13-20.01 49.13-20.01s-2.84 44.867 46.955 51.506C706.445 69.1 705.215 23 705.215 23s9.042 20.82 24.334 14.388c15.29-6.43 3.572-23.81 3.572-23.81s32.47 47.77 73.583 23.81c41.113-23.956 28.935-70.17 28.935-70.17l-283.32-.2v-.02l-13.606.01L525.1-33l-.006.02-201.034.143c-.415-2.015-.748-3.163-.748-3.163l-352.15.25s-11.13 52.41 35.493 79.576c46.622 27.167 80.763-27.003 80.763-27.003s-13.29 19.71 4.053 27.003c17.35 7.294 27.6-16.317 27.6-16.317s-1.39 52.27 55.07 44.75c29.98-4 43.13-20.21 48.88-34.55z"/></svg>
